X: 305626
T: COTILLION No. 1. FANNY JONES' SETT tune 3
%R: jig
B: Elias Howe "The Musician's Companion" Part 3 1844 p.78 #3
S: http://imslp.org/wiki/The_Musician's_Companion_(Howe,_Elias)
Z: 2015 John Chambers <jc:trillian.mit.edu>
M: 6/8
L: 1/8
K: Eb
% - - - - - - - - - - - - - - - - - - - - - - - - - - - - -
B, |\
EFG FED | EGB edf | egf dfe | c3 B2 B, |\
EFG FED | EGB e2g | bbb b2d | e3 e2 H|]
g |\
g2g gfg | d2d dcd | efg gfe | d2c B2G |\
GBd gec | GBd gec | BAG FGG | F3 "^D.C."E2 |]
B |\
f3 fgf | e2e ede | f2f fg=g | a2g f2 B |\
f3 fgf | e3 efg | [a2f2]f g2f | e3 "^D.C."z2 |]
% - - - - - - - - - - Dance description - - - - - - - - - -
%%begintext align
%% First 2 forward and back,
%% back to back,
%% balance and turn partners,
%% ladies chain,
%% promenade 4.
%% The other couples the same.
%%endtext
% - - - - - - - - - - - - - - - - - - - - - - - - - - - - -
%%sep 1 1 300


